X: 1
T:Lads-a-Bunchum
M:4/4
C:
S:Seabright \& Bruno
N:
A:Adderbury
O:English
R:Reel
%P:Ch(AB)$^6$B
P:A.(AB)6B
%
%
K:G
I:speed 400
%
P:A
%
|: A2 | B2   B2    Bcde           | c2    A2       A2    \
w: *    Oh   dear  moth-er, what a  fool  I've     been,
w: *    Five were  blind_ and the   other couldn't see,
   Bc | d2   d2    dcBA           | B2    G2       G2    :|
w: **   Six  young fel-lows come a  court-in'      me.
w: **   oh   dear  moth-er, what a  fool  I've     been!
P:B
|: gf | e2 d2 d2 GA | B2 B2 B2 gf | e2 d2 c2 B2 | A2 G2 G2 :|
